packages/tokens/icons/blog2/size32Px.svg

<svg viewBox="0 0 32 32" fill="none" xmlns="http://www.w3.org/2000/svg" width="1em" height="1em"><path d="M25.5 11V8C25.5 7.17157 24.8284 6.5 24 6.5L4 6.5C3.17157 6.5 2.5 7.17157 2.5 8L2.5 24C2.5 24.8284 3.17157 25.5 4 25.5H24C24.8284 25.5 25.5 24.8284 25.5 24V19" stroke="currentColor" stroke-linecap="round"/><line x1="2.85718" y1="9.5" x2="25.1429" y2="9.5" stroke="currentColor"/><ellipse cx="4.1428" cy="8.15911" rx="0.428571" ry="0.431818" fill="currentColor"/><ellipse cx="5.85704" cy="8.15911" rx="0.428571" ry="0.431818" fill="currentColor"/><ellipse cx="7.57139" cy="8.15911" rx="0.428571" ry="0.431818" fill="currentColor"/><path d="M5.5 13.5H19.5M5.5 16.5H15.5M5.5 19.5H10.5" stroke="currentColor" stroke-linecap="round"/><path d="M27.8964 11.0607C28.0917 10.8654 28.4083 10.8654 28.6036 11.0607L29.3107 11.7678C29.5059 11.963 29.5059 12.2796 29.3107 12.4749L19.0606 22.725C18.9894 22.7962 18.8984 22.8442 18.7994 22.8628L17.9285 23.0267C17.5827 23.0917 17.2796 22.7887 17.3447 22.4428L17.5085 21.5719C17.5271 21.473 17.5752 21.3819 17.6463 21.3108L27.8964 11.0607Z" stroke="currentColor"/></svg>

<svg xmlns="http://www.w3.org/2000/svg" fill="none" viewBox="0 0 32 32" width="1em" height="1em"><path stroke="currentColor" stroke-linecap="round" d="M25.5 11V8A1.5 1.5 0 0 0 24 6.5H4A1.5 1.5 0 0 0 2.5 8v16A1.5 1.5 0 0 0 4 25.5h20a1.5 1.5 0 0 0 1.5-1.5v-5"/><path stroke="currentColor" d="M2.857 9.5h22.286"/><ellipse cx="4.143" cy="8.159" fill="currentColor" rx=".429" ry=".432"/><ellipse cx="5.857" cy="8.159" fill="currentColor" rx=".429" ry=".432"/><ellipse cx="7.571" cy="8.159" fill="currentColor" rx=".429" ry=".432"/><path stroke="currentColor" stroke-linecap="round" d="M5.5 13.5h14m-14 3h10m-10 3h5"/><path stroke="currentColor" d="M27.896 11.06a.5.5 0 0 1 .708 0l.707.708a.5.5 0 0 1 0 .707l-10.25 10.25a.5.5 0 0 1-.262.138l-.87.164a.5.5 0 0 1-.584-.584l.164-.871a.5.5 0 0 1 .137-.261l10.25-10.25Z"/></svg>
